X:1
T:Title
T:Joyful, Joyful, We Adore Thee
T:Ludwig Van Beethoven
C:Composer
%%score 1 2 3 4
L:1/8
M:4/4
K:G
V:1 treble nm="Sop" snm="Sop"
V:2 treble nm="Alto" snm="A."
V:3 bass nm="Ten" snm="Ten"
V:4 bass nm="Bass" snm="B."
V:1
 B2 B2 c2 d2 | d2 c2 B2 A2 | G2 G2 A2 B2 | B3 A A4 | B2 B2 c2 d2 | d2 c2 B2 A2 | G2 G2 A2 B2 | %7
 A3 G G4 | A2 A2 B2 G2 | A2 (Bc) B2 G2 | A2 (Bc) B2 A2 | G2 A2 D4 | B2 B2 c2 d2 | d2 c2 B2 A2 | %14
 G2 G2 A2 B2 | A3 G G4 |] %16
V:2
 D2 D2 D2 D2 | D2 D2 D2 D2 | D2 D2 D2 D2 | D3 D D4 | D2 D2 E2 =F2 | =F2 E2 E2 E2 | D2 D2 D2 G2 | %7
 F3 D D4 | D2 D2 D2 G2 | F2 (GA) G2 G2 | F2 G2 F2 ^D2 | E2 ^C2 D4 | D2 D2 E2 =F2 | =F2 E2 E2 E2 | %14
 D2 D2 D2 G2 | F3 D D4 |] %16
V:3
 G,2 G,2 A,2 B,2 | B,2 A,2 G,2 F,2 | G,2 G,2 F,2 G,2 | G,3 F, F,4 | G,2 G,2 G,2 (A,B,) | %5
w: 1.Joy ful, joy- ful,|we a- dore Thee,|God of glo- ry,|Lord of love;|Hearts un- fold like _|
w: 2.All Thy works with|joy sur- round Thee,|Earth and heav'n are|fleet Thy rays,|Star and an- gels _|
w: 3.Thou art giv- ing|and for- giv- ing,|Ev- er bless- ing|ev- er blest;|Well- soring of the _|
w: 4.Mor tals, join the|might- y cho- rus|Which the morn- ing|stars be- gan;|Fa- ther love is _|
 B,2 C2 D2 C2 | B,2 B,2 C2 D2 | C3 B, B,4 | F,2 F,2 G,2 B,2 | D2 D2 D2 B,2 | D2 (B,A,) B,2 B,2 | %11
w: flow'rs be- fore Thee.|Hail Thee as the|sun a- bove.|Melt the clouds of|sin and sad- ness.|Drive the _ dark of|
w: sing a- round Thee,|Cen- ter of un-|bro- ken praise.|Field and for- est,|vale and moun- tain,|Flow- 'ry _ mead- ow,|
w: joy of liv- ing,|All who live in|love are Thine;|Thou thy Fa- ther,|Christ our Broth- er|All who _ live in|
w: reign- ing o'er us,|Broth- er love binds|man to man.|Ev- er sing- ing,|march we un- ward,|Vic- tors _ in the|
 B,2 A,2 F,4 | G,2 G,2 G,2 (A,B,) | B,2 C2 D2 C2 | B,2 B,2 C2 D2 | C3 B, B,4 |] %16
w: coubt a- way;|Giv- er of im _|mor- tal glad- ness,|Fill us with the|light of day!|
w: flash- ing sea,|Chant- ing bird and _|flow- ing fount- ain.|Call us to re-|joice in Thee.|
w: love are Thine;|Teach us how to _|love each oth- er,|Lift us to the|joy di- vine.|
w: midst of strife;|Joy- ful mus- ic _|lifts us sun- ward|in the tri- umph|song of life.|
V:4
 G,2 G,2 G,2 G,2 | D,2 D,2 D,2 C,2 | B,,2 B,,2 A,,2 G,,2 | D,3 D, D,4 | G,2 G,2 G,2 G,2 | %5
 C,2 C,2 C,2 C,2 | D,2 D,2 D,2 D,2 | D,3 G,, G,,4 | D,2 D,2 D,2 D,2 | D,2 D,2 D,2 D,2 | %10
 D,2 D,2 ^D,2 B,,2 | E,2 A,,2 D,4 | G,2 G,2 G,2 G,2 | C,2 C,2 C,2 C,2 | D,2 D,2 D,2 D,2 | %15
 D,3 G,, G,,4 |] %16

